src/actions/22/view-financial-account-loan.svg

<svg viewBox="0 0 22 22" xmlns="http://www.w3.org/2000/svg">
  <defs id="defs3051">
    <style type="text/css" id="current-color-scheme">
      .ColorScheme-Text {
        color:#363636;
      }
      </style>
  </defs>
<path
    d="m7 4v2h-4v12h16v-12h-4v-2h-7zm1 1h6v1h-6zm-4 2h1v10h-1zm3 0h8v10h-8zm10 0h1v10h-1z"
    style="fill:currentColor;fill-opacity:1;stroke:none"
    class="ColorScheme-Text"
    />
</svg>

<svg xmlns="http://www.w3.org/2000/svg" viewBox="0 0 22 22">
    <path d="M7 4v2H3v12h16V6h-4V4H8zm1 1h6v1H8zM4 7h1v10H4zm3 0h8v10H7zm10 0h1v10h-1z" style="fill:currentColor;fill-opacity:1;stroke:none;color:#050505;opacity:.7"/>
</svg>
